X:223
T: IN DEM GOLDNEN STRAHL UEBER BERG UND THAL
N: B0266
O: Europa, Mitteleuropa, Deutschland
R: Stimmungs - Lied, Natur
M: 2/4
L: 1/16
K: A
EE | A2BGA2EE | c2dBc2
cc | Be^dcBAGF | F4E2
EE | d3cB2EE | c3BA2
AA | B2BBEFGE | A2c2A2

@@@ Tune index: 2026
